icons/numix/16x16/mimetypes/application-x-blender.svg

<?xml version="1.0" encoding="UTF-8" standalone="no"?>
<svg
   xmlns:dc="http://purl.org/dc/elements/1.1/"
   xmlns:cc="http://creativecommons.org/ns#"
   xmlns:rdf="http://www.w3.org/1999/02/22-rdf-syntax-ns#"
   xmlns:svg="http://www.w3.org/2000/svg"
   xmlns="http://www.w3.org/2000/svg"
   xmlns:sodipodi="http://sodipodi.sourceforge.net/DTD/sodipodi-0.dtd"
   xmlns:inkscape="http://www.inkscape.org/namespaces/inkscape"
   width="16"
   height="16"
   viewBox="0 0 16 16"
   id="svg2"
   version="1.1"
   inkscape:version="0.48.5 r10040"
   sodipodi:docname="application-x-blender.svg">
  <metadata
     id="metadata20">
    <rdf:RDF>
      <cc:Work
         rdf:about="">
        <dc:format>image/svg+xml</dc:format>
        <dc:type
           rdf:resource="http://purl.org/dc/dcmitype/StillImage" />
      </cc:Work>
    </rdf:RDF>
  </metadata>
  <defs
     id="defs18" />
  <sodipodi:namedview
     pagecolor="#ffffff"
     bordercolor="#666666"
     borderopacity="1"
     objecttolerance="10"
     gridtolerance="10"
     guidetolerance="10"
     inkscape:pageopacity="0"
     inkscape:pageshadow="2"
     inkscape:window-width="1280"
     inkscape:window-height="970"
     id="namedview16"
     showgrid="true"
     inkscape:zoom="14.75"
     inkscape:cx="12.161386"
     inkscape:cy="9.1963556"
     inkscape:window-x="0"
     inkscape:window-y="0"
     inkscape:window-maximized="1"
     inkscape:current-layer="svg2">
    <inkscape:grid
       type="xygrid"
       id="grid3008" />
  </sodipodi:namedview>
  <path
     style="fill:#ce5b00;fill-opacity:1"
     d="M 2.667969,-4.46e-4 C 2.324219,-4.46e-4 2,0.337812 2,0.6964467 L 2,15.303108 C 2,15.641365 2.34375,16 2.667969,16 l 10.664062,0 C 13.65625,16 14,15.641365 14,15.303108 L 14,3.9995538 9.9999998,-4.46e-4 z"
     id="path4-5"
     inkscape:connector-curvature="0"
     sodipodi:nodetypes="ssssssccs" />
  <path
     style="fill:#000000;fill-opacity:0.19599998"
     d="m 10.583223,3.3315848 0.0154,0.01953 0.04005,-0.01953 z m 0.02978,0.667969 3.387,3.664062 0,-3.664062 z"
     id="path6"
     inkscape:connector-curvature="0"
     sodipodi:nodetypes="cccccccc" />
  <path
     style="fill:#ffffff;fill-opacity:0.39200003"
     d="m 9.9999998,-4.46e-4 3.9963962,3.9999998 -3.383784,0 c -0.299099,0 -0.6126122,-0.317117 -0.6126122,-0.616216 z"
     id="path8"
     inkscape:connector-curvature="0"
     sodipodi:nodetypes="ccssc" />
  <g
     style="fill:#ffffff"
     id="g10"
     transform="matrix(1.328612,0,0,1.328612,-2.5197401,-2.7392889)">
    <path
       style="fill-rule:evenodd"
       d="m 7.839844,5.335938 c -0.109375,0 -0.21875,0.039062 -0.3125,0.109374 C 7.433594,5.515625 7.375,5.613281 7.367188,5.722656 7.359375,5.835938 7.402344,5.949219 7.488281,6.027344 l 0,0.00781 C 7.6875,6.207031 7.898438,6.386719 8.097656,6.566406 l -2.273437,0 C 5.664062,6.566406 5.527344,6.605469 5.421875,6.6875 5.316406,6.769531 5.25,6.890625 5.230469,7.027344 5.183594,7.296875 5.375,7.601562 5.6875,7.601562 l 0.992188,0 -2.070313,1.6875 c 0,0 -0.00391,-0.00391 -0.00781,0 -0.128906,0.105469 -0.21875,0.253907 -0.25,0.40625 -0.035156,0.152344 -0.019531,0.308594 0.070313,0.4375 0.183594,0.257813 0.550781,0.25 0.808594,0.02344 L 6.316406,9.175781 c 0.00391,0.117188 0.03125,0.292969 0.074219,0.449219 0.089844,0.3125 0.242187,0.601562 0.449219,0.859375 0.21875,0.257813 0.480468,0.46875 0.785156,0.617187 0.320312,0.15625 0.664062,0.234376 1.023438,0.234376 0.359374,0 0.703124,-0.08203 1.023437,-0.242188 0.304687,-0.148438 0.574219,-0.355469 0.789063,-0.617188 0.210937,-0.257812 0.355468,-0.546874 0.445312,-0.863281 0.04297,-0.15625 0.07813,-0.320312 0.08984,-0.484375 C 11.007812,8.972656 11,8.8125 10.976562,8.652344 10.9375,8.34375 10.847656,8.050781 10.695312,7.785156 10.578125,7.578125 10.421875,7.398438 10.253906,7.234375 l 0.0078,-0.00781 L 10.171875,7.15625 8.15625,5.453125 c 0,0 -0.00781,-0.00781 -0.00781,-0.00781 0,0 -0.00781,0 -0.00781,0 C 8.050781,5.375 7.949219,5.335938 7.839844,5.335938 z M 8.625,7.125 c 1.039062,0 1.886719,0.832031 1.886719,1.863281 0,1.027344 -0.847657,1.859375 -1.886719,1.859375 -1.042969,0 -1.886719,-0.832031 -1.886719,-1.859375 C 6.738281,7.957031 7.582031,7.125 8.625,7.125 z"
       id="path12"
       inkscape:connector-curvature="0" />
    <path
       d="m 9.167969,9.003906 c 0,0.304688 -0.253907,0.554688 -0.566407,0.554688 -0.3125,0 -0.5625,-0.25 -0.5625,-0.554688 0,-0.308594 0.25,-0.558594 0.5625,-0.558594 0.3125,0 0.566407,0.25 0.566407,0.558594 z"
       id="path14"
       inkscape:connector-curvature="0" />
  </g>
</svg>

<svg width="16" xmlns="http://www.w3.org/2000/svg" height="16" viewBox="0 0 16 16" xmlns:xlink="http://www.w3.org/1999/xlink">
<path style="fill:#ce5b00" d="M 2.667969 0.332031 C 2.324219 0.332031 2 0.65625 2 1 L 2 15 C 2 15.324219 2.34375 15.667969 2.667969 15.667969 L 13.332031 15.667969 C 13.65625 15.667969 14 15.324219 14 15 L 14 4.667969 L 9.667969 0.332031 Z "/>
<path style="fill:#000;fill-opacity:.196" d="M 9.667969 4 L 9.6875 4.019531 L 9.738281 4 Z M 10.332031 4.667969 L 14 8.332031 L 14 4.667969 Z "/>
<path style="fill:#fff;fill-opacity:.392" d="M 9.667969 0.332031 L 14 4.667969 L 10.332031 4.667969 C 10.007812 4.667969 9.667969 4.324219 9.667969 4 Z "/>
<g style="fill:#fff">
<path style="fill-rule:evenodd" d="M 7.839844 5.335938 C 7.730469 5.335938 7.621094 5.375 7.527344 5.445312 C 7.433594 5.515625 7.375 5.613281 7.367188 5.722656 C 7.359375 5.835938 7.402344 5.949219 7.488281 6.027344 L 7.488281 6.035156 C 7.6875 6.207031 7.898438 6.386719 8.097656 6.566406 L 5.824219 6.566406 C 5.664062 6.566406 5.527344 6.605469 5.421875 6.6875 C 5.316406 6.769531 5.25 6.890625 5.230469 7.027344 C 5.183594 7.296875 5.375 7.601562 5.6875 7.601562 L 6.679688 7.601562 L 4.609375 9.289062 C 4.609375 9.289062 4.605469 9.285156 4.601562 9.289062 C 4.472656 9.394531 4.382812 9.542969 4.351562 9.695312 C 4.316406 9.847656 4.332031 10.003906 4.421875 10.132812 C 4.605469 10.390625 4.972656 10.382812 5.230469 10.15625 L 6.316406 9.175781 C 6.320312 9.292969 6.347656 9.46875 6.390625 9.625 C 6.480469 9.9375 6.632812 10.226562 6.839844 10.484375 C 7.058594 10.742188 7.320312 10.953125 7.625 11.101562 C 7.945312 11.257812 8.289062 11.335938 8.648438 11.335938 C 9.007812 11.335938 9.351562 11.253906 9.671875 11.09375 C 9.976562 10.945312 10.246094 10.738281 10.460938 10.476562 C 10.671875 10.21875 10.816406 9.929688 10.90625 9.613281 C 10.949219 9.457031 10.984375 9.292969 10.996094 9.128906 C 11.007812 8.972656 11 8.8125 10.976562 8.652344 C 10.9375 8.34375 10.847656 8.050781 10.695312 7.785156 C 10.578125 7.578125 10.421875 7.398438 10.253906 7.234375 L 10.261719 7.226562 L 10.171875 7.15625 L 8.15625 5.453125 C 8.15625 5.453125 8.148438 5.445312 8.148438 5.445312 C 8.148438 5.445312 8.140625 5.445312 8.140625 5.445312 C 8.050781 5.375 7.949219 5.335938 7.839844 5.335938 Z M 8.625 7.125 C 9.664062 7.125 10.511719 7.957031 10.511719 8.988281 C 10.511719 10.015625 9.664062 10.847656 8.625 10.847656 C 7.582031 10.847656 6.738281 10.015625 6.738281 8.988281 C 6.738281 7.957031 7.582031 7.125 8.625 7.125 Z "/>
<path d="M 9.167969 9.003906 C 9.167969 9.308594 8.914062 9.558594 8.601562 9.558594 C 8.289062 9.558594 8.039062 9.308594 8.039062 9.003906 C 8.039062 8.695312 8.289062 8.445312 8.601562 8.445312 C 8.914062 8.445312 9.167969 8.695312 9.167969 9.003906 Z "/>
</g>
</svg>
